X: 0874
M: 6/8
L: 1/8
K: G
dBG GBG | AFD DFD | EFG ABc | BAG FED |\
dBG GBG | AFD DFD | EFG AFD | G3  G2 :|
|: B/c/ |\
dBd dBd |  gfg dBG | cec BdB | ABG AFD |\
dBd dBd | Tgfg dBG | EFG AFD | G3  G2 :|

